static/img/icons-line-round-join.svg

<svg width="240" height="240" xmlns="http://www.w3.org/2000/svg"><g fill="none" fill-rule="evenodd"><path fill="#FFF" d="M0 0h240v240H0z"/><g stroke="#DFDFDF"><path d="M39.5 39.5h160v160h-160z"/><g stroke-linecap="square"><path d="M49.5 39.5v160M59.5 39.5v160M69.5 39.5v160M79.5 39.5v160M89.5 39.5v160M99.5 39.5v160M109.5 39.5v160M119.5 39.5v160M129.5 39.5v160M139.5 39.5v160M149.5 39.5v160M159.5 39.5v160M169.5 39.5v160M179.5 39.5v160M189.5 39.5v160M199.5 49.5h-160M199.5 59.5h-160M199.5 69.5h-160M199.5 79.5h-160M199.5 89.5h-160M199.5 99.5h-160M199.5 109.5h-160M199.5 119.5h-160M199.5 129.5h-160M199.5 139.5h-160M199.5 149.5h-160M199.5 159.5h-160M199.5 169.5h-160M199.5 179.5h-160M199.5 189.5h-160"/></g></g><path d="M156.656 92.787c3.905 3.905 3.905 10.237 0 14.142l-39.603 39.603c-3.892 3.892-10.197 3.907-14.108.034l-19.72-19.53c-3.905-3.867-3.935-10.168-.068-14.073l.034-.034.059-.059c3.882-3.882 10.168-3.908 14.083-.059l12.683 12.473 32.497-32.497c3.906-3.905 10.237-3.905 14.143 0z" fill-opacity=".3" fill="#6E49CB"/><path stroke="#6E49CB" stroke-linecap="round" stroke-linejoin="round" d="M90 120l20 20 40-40"/><circle stroke="#DB3B21" fill-opacity=".499" fill="#FC6D26" cx="109.5" cy="139.5" r="9"/><path stroke="#6E49CB" fill="#FFF" d="M107.5 137.5h4v4h-4zM87.5 117.5h4v4h-4zM147.5 97.5h4v4h-4z"/><path d="M69 49h101c11.046 0 20 8.954 20 20v101c0 11.046-8.954 20-20 20H69c-11.046 0-20-8.954-20-20V69c0-11.046 8.954-20 20-20zm1 21v99h99V70H70z" fill-opacity=".3" fill="#6E49CB" fill-rule="nonzero"/></g></svg>

<svg width="240" height="240" viewBox="0 0 240 240" fill="none" xmlns="http://www.w3.org/2000/svg"><path fill="#fff" d="M0 0h240v240H0z"/><path stroke="#DFDFDF" d="M39.5 39.5h160v160h-160z"/><path d="M49.5 39.5v160m10-160v160m10-160v160m10-160v160m10-160v160m10-160v160m10-160v160m10-160v160m10-160v160m10-160v160m10-160v160m10-160v160m10-160v160m10-160v160m10-160v160m10-150h-160m160 10h-160m160 10h-160m160 10h-160m160 10h-160m160 10h-160m160 10h-160m160 10h-160m160 10h-160m160 10h-160m160 10h-160m160 10h-160m160 10h-160m160 10h-160m160 10h-160" stroke="#DFDFDF" stroke-linecap="square"/><path d="M70 174a5 5 0 0 1-5-5V69a5 5 0 0 1 5-5h92.5a7.5 7.5 0 0 0 0-15H70c-11.046 0-20 8.954-20 20v100c0 11.046 8.954 20 20 20h100c11.046 0 20-8.954 20-20v-32.5a7.5 7.5 0 0 0-15 0V169a5 5 0 0 1-5 5H70Z" fill="#6E49CB" fill-opacity=".3"/><path d="M197.803 85.803a7.5 7.5 0 0 0-10.606-10.606l-55.577 55.577-18.73-19.359a7.5 7.5 0 1 0-10.78 10.43l24.031 24.839a7.502 7.502 0 0 0 10.693.088l60.969-60.969Z" fill="#6E49CB" fill-opacity=".3"/><path d="m110 120 21 21 60-60" stroke="#6E49CB" stroke-linecap="round" stroke-linejoin="round"/><path d="M138.5 141a7.5 7.5 0 1 1-15 0 7.5 7.5 0 0 1 15 0Z" fill="#FC6D26" fill-opacity=".499" stroke="#DB3B21"/><path fill="#fff" stroke="#6E49CB" d="M128.5 138.5h4v4h-4zm-21-21h4v4h-4zm82-39h4v4h-4z"/></svg>
